packages/admin/admin-icons/icons/move-page.svg

<svg xmlns="http://www.w3.org/2000/svg" width="16" height="16" viewBox="0 0 16 16"><path fill="#242424" fill-rule="evenodd" d="M2.5,10.5 C2.77614237,10.5 3,10.7238576 3,11 L3,14.5 C3,14.7454599 3.17687516,14.9496084 3.41012437,14.9919443 L3.5,15 L13.5,15 C13.7761424,15 14,15.2238576 14,15.5 C14,15.7761424 13.7761424,16 13.5,16 L3.5,16 C2.72030388,16 2.07955132,15.4051119 2.00686658,14.64446 L2,14.5 L2,11 C2,10.7238576 2.22385763,10.5 2.5,10.5 Z M13.5743055,8.58714455 L13.6435534,8.645 L15.9971068,10.9985534 L13.6435534,13.3521068 C13.4482912,13.5473689 13.1317088,13.5473689 12.9364466,13.3521068 C12.7628803,13.1785404 12.7435951,12.909116 12.8785912,12.7142479 L12.9364466,12.645 L14.083,11.4985534 L8.29,11.4985534 C8.01385763,11.4985534 7.79,11.2746958 7.79,10.9985534 C7.79,10.7530935 7.96687516,10.548945 8.20012437,10.5066091 L8.29,10.4985534 L14.083,10.4985534 L12.9364466,9.35210678 C12.7628803,9.17854043 12.7435951,8.90911603 12.8785912,8.71424789 L12.9364466,8.645 C13.110013,8.47143365 13.3794374,8.4521485 13.5743055,8.58714455 Z M3.06066017,4.645 C3.23422652,4.81856635 3.25351167,5.08799075 3.11851562,5.28285889 L3.06066017,5.35210678 L1.91410678,6.49855339 L7.70710678,6.49855339 C7.98324916,6.49855339 8.20710678,6.72241102 8.20710678,6.99855339 C8.20710678,7.24401328 8.03023162,7.44816176 7.79698241,7.49049772 L7.70710678,7.49855339 L1.91410678,7.49855339 L3.06066017,8.645 C3.23422652,8.81856635 3.25351167,9.08799075 3.11851562,9.28285889 L3.06066017,9.35210678 C2.88709382,9.52567313 2.61766942,9.54495828 2.42280128,9.40996223 L2.35355339,9.35210678 L-1.33226763e-12,6.99855339 L2.35355339,4.645 C2.54881554,4.44973785 2.86539803,4.44973785 3.06066017,4.645 Z M3.5,0 L9.53959156,0.00156876395 L9.58987563,0.00805566941 L9.65473232,0.024543968 L9.72678591,0.0543895452 L9.75235957,0.0682646574 L9.82214364,0.117593731 L13.8535534,4.14644661 C14.147537,4.44043021 13.9728055,4.92918427 13.586032,4.99304488 L13.5,5 L9.5,5 C9.25454011,5 9.05039163,4.82312484 9.00805567,4.58987563 L9,4.5 L9,1 L3.5,1 C3.25454011,1 3.05039163,1.17687516 3.00805567,1.41012437 L3,1.5 L3,3 C3,3.27614237 2.77614237,3.5 2.5,3.5 C2.22385763,3.5 2,3.27614237 2,3 L2,1.5 C2,0.720303883 2.59488808,0.0795513218 3.35553999,0.00686657806 L3.5,0 Z M10,1.707 L10,4 L12.293,4 L10,1.707 Z"/></svg>

<svg width="16" height="16" fill="none" viewBox="0 0 16 16">
  <path fill="#242424" fill-rule="evenodd" d="m3.501.001 6.04.002.05.006.065.017.072.03.026.013.07.05 4.031 4.028a.5.5 0 0 1-.268.847l-.085.007h-4a.5.5 0 0 1-.492-.41L9 4.5V1H3.5a.5.5 0 0 0-.491.41L3 1.501v1.5a.5.5 0 1 1-1 0v-1.5A1.5 1.5 0 0 1 3.357.008L3.501 0Zm6.5 4V1.708l2.293 2.293h-2.293Z M3.001 14.501a.5.5 0 0 0 .41.492l.09.008h10a.5.5 0 1 1 0 1h-10a1.5 1.5 0 0 1-1.493-1.356l-.007-.144v-3.5a.5.5 0 1 1 1 0v3.5Zm9.937-7.459a.5.5 0 0 1 .638-.057l.069.057 2.354 2.354-2.354 2.353a.5.5 0 0 1-.765-.637l.058-.07 1.146-1.146H8.291a.5.5 0 0 1-.09-.992l.09-.008h5.793L12.938 7.75a.5.5 0 0 1-.058-.638l.058-.07ZM.001 7l2.354-2.354a.5.5 0 0 1 .765.638l-.058.07L1.916 6.5h5.793a.5.5 0 0 1 .09.991l-.09.009H1.916l1.146 1.146a.5.5 0 0 1 .058.638l-.058.07a.5.5 0 0 1-.638.057l-.069-.058L.001 7Z" clip-rule="evenodd"/>
</svg>
